X:1
T:Title
%%score { ( 1 3 5 ) | ( 2 4 ) }
L:1/8
Q:1/4=110
M:4/4
K:F
V:1 treble nm="Grand Piano"
V:3 treble 
V:5 treble 
V:2 bass 
V:4 bass 
V:1
 F2 (3CCC [F,CF]2 [CEG]2 | F2 z2[K:bass] [A,CF]4 | A2 (3FFF A2 [F=B]2 | c8 | z2 d2 z4 | B4 [CFA]4 | %6
w: Frank~M.~Jeffery * * * * *||||||
 G2 (3z EE G2 d2 | [CEc]8 | [Dd]2 [EB]2 [EA]2 [EG]2 | [Fc]4 [FA]4 | z4 c4 | [F,A,Fc]8 | %12
w: ||||||
 z2 [A,A]2 z4 | D2 (3DDD [A,DF]4 | [G,CEG]2 [EGc]2 [=Be]3 d | [Ec]8 | [Ac]4 z4[K:bass] | %17
w: |||||
 [B,E]4 [B,D]4 | d4 z2 .F2 | F4 E4 | [ce]3 d [CAc]2 [CEB]2 | [CFA]2 [_E^Fc]2 [DGB]2 [DG]2 | %22
w: |||||
 [Fc]4 [CE]4 |[M:6/4] [A,CF]12 |] %24
w: ||
V:2
 [F,A,C]2 [F,A,]2 A,,2 C,2 | z2[K:treble] (3FFF[K:bass] F,,2 F,,2 | %2
 [F,CF]2 [F,A,C]2 [F,A,F]2 [D,G,]2 | G,2 G,2 A,2 B,2 | [B,CE]2 (3[EB]EE [A,CF]2 [F,CF]2 | %5
 [CE]2 (3CCC[K:bass] [F,,F,]2 F,,2 | [G,CE]2 (3[CE]C[K:treble]C [G,DF]2 [G,=B,F]2 | C,8 | %8
 [C,B,]2 [C,G,]2 [C,C]2 [C,B,]2 | [F,A,]4 [F,C]4 | [C,G,]2 C,2 D,2 z[K:treble] d | %11
 F,,2 F,,2 F,,2 F,,2 | ^C,2 (3C,C,C, C,2 A,,2 | D,2 (3D,D,D, D,2 D,2 | %14
 G,,2 [G,,G,]2 [G,,G,]2 z[K:treble] =B | C2 C6[K:bass] | [F,,C,]2 z F z F z F | %17
 B,,2 F,,2 B,,2 F,,2 | [B,,G,]2 z[K:treble] B[K:bass] z G =B,,2 | %19
 [C,A,C]2 [C,_A,=B,]2 [C,A,C]2 [C,A,]2 | [C,,C,]2 z[K:treble] B[K:bass] [F,,F,]2 [C,,C,]2 | %21
 [F,,F,]2 [A,,A,]2 [B,,G,]2 [=B,,G,]2 | [C,A,C]4 [C,B,]4 |[M:6/4] [F,,C,]12 |] %24
V:3
 x8 | [CA]4[K:bass] F,2 F,2 | x8 | E2 E2 F2 G2 | d2 (3z BB c2 A2 | z2 (3EEE z2 F,2 | z2 G2 z4 | %7
 x8 | x8 | x8 | [EB]2 [G,EG]2 [CF]2 [CG]2 | x8 | [A,EA]2 (3[^CE][CE][CE] [A,EA]2 [A,CE]2 | %13
 [A,G]4 z4 | z4 F2 F2 | x8 | C2 z A .[A,CG]2[K:bass] .[F,CE]2 | F,2 F,2 F,2 F,2 | %18
 [DG]2 [G,DG]2 .[DA]2 [G,D]-[G,DG] | z2 D2 z2 C2 | E2 E2 z4 | x8 | x8 |[M:6/4] x12 |] %24
V:4
 x8 | F,4[K:treble][K:bass] z4 | x8 | C,8 | z2 [B,C]2 z4 | G,4[K:bass] z4 | z2 G,2[K:treble] z4 | %7
 z2 C,,2 C,,2 C,,2 | x8 | x8 | z4 z2 E,2[K:treble] | x8 | x8 | x8 | z4 z2 [G,,G,]2[K:treble] | %15
 z D z B,[K:bass] A,G,A,B, | z2 [C,,C,]2 [F,,C,]2 A,,2 | x8 | %18
 z2 G,,2[K:treble][K:bass] [B,,G,]2 z2 | x8 | z2 [E,,E,]2[K:treble][K:bass] z4 | x8 | x8 | %23
[M:6/4] x12 |] %24
V:5
 x8 | x4[K:bass] x4 | x8 | x8 | x8 | x8 | x8 | x8 | x8 | x8 | x8 | x8 | x8 | x8 | x8 | x8 | %16
 z2 C2 z4[K:bass] | x8 | x8 | x8 | x8 | x8 | x8 |[M:6/4] x12 |] %24

